assets/img/islandWrap.svg

<svg width="1920" height="396" viewBox="0 0 1920 396" fill="none" xmlns="http://www.w3.org/2000/svg">
<path d="M1357 40.9935C1357 40.9935 1372.15 30.8835 1383 28.9935C1393.85 27.1035 1404 24.9935 1410.24 24.9335C1416.86 24.8735 1432.77 18.4935 1432.77 18.4935C1432.77 18.4935 1449.57 5.99355 1469.92 7.90355C1490.27 9.81355 1494.33 11.6835 1505.18 4.12355C1516.03 -3.43645 1556.72 0.333548 1570.29 7.90355C1583.86 15.4735 1593.29 24.9035 1617.76 23.0435C1642.23 21.1835 1661.16 34.3936 1661.16 34.3936L1691 58.9935H1337L1357 40.9935Z" fill="#6B7181"/>
<path d="M684.001 57.7794C684.001 57.7794 686.651 45.8794 668.131 41.9194C649.611 37.9594 645.651 39.2694 629.781 36.6294C613.911 33.9894 625.781 37.9494 605.981 28.6894C586.181 19.4294 584.791 18.1094 567.601 19.4294C550.411 20.7494 547.761 24.7194 527.931 20.7594C508.101 16.7994 499.001 23.2994 492.221 29.9994C484.001 38.1494 474.871 34.4694 459.001 33.1494C443.131 31.8294 426.001 41.1494 426.001 41.1494C426.001 41.1494 415.331 44.8894 414.001 54.1494C412.671 63.4094 684.001 57.7794 684.001 57.7794Z" fill="#6B7081"/>
<path d="M1181.7 37.3714C1181.7 37.3714 1199.33 29.2314 1210.18 27.8714C1221.03 26.5114 1227.82 27.8714 1233.24 30.5814C1238.66 33.2914 1255.77 25.9714 1255.77 25.9714C1255.77 25.9714 1272.57 17.0214 1292.92 18.3814C1313.27 19.7414 1316.8 19.8614 1328.18 15.6614C1349 8.00136 1382 14.0014 1392 22.0014C1403.41 31.1214 1416.34 30.5814 1440.76 29.2314C1455.67 28.4892 1470.54 31.2782 1484.16 37.3714L1514 55.0014H1160L1181.7 37.3714Z" fill="#606572"/>
<path d="M1920 55H0V396H1920V55Z" fill="#9A808A"/>
</svg>

<?xml version="1.0" encoding="utf-8"?>
<!-- Generator: Adobe Illustrator 16.0.0, SVG Export Plug-In . SVG Version: 6.00 Build 0)  -->
<!DOCTYPE svg PUBLIC "-//W3C//DTD SVG 1.1//EN" "http://www.w3.org/Graphics/SVG/1.1/DTD/svg11.dtd">
<svg version="1.1" id="Layer_1" xmlns="http://www.w3.org/2000/svg" xmlns:xlink="http://www.w3.org/1999/xlink" x="0px" y="0px"
	 width="1920px" height="396px" viewBox="0 0 1920 396" enable-background="new 0 0 1920 396" xml:space="preserve">
<path fill="#6B7181" d="M1357,40.994c0,0,15.15-10.11,26-12c10.85-1.89,21-4,27.24-4.06c6.62-0.06,22.529-6.44,22.529-6.44
	s16.801-12.5,37.15-10.59c20.35,1.91,24.41,3.78,35.26-3.78c10.851-7.56,51.54-3.79,65.11,3.78c13.57,7.57,23,17,47.47,15.14
	c24.471-1.86,43.4,11.35,43.4,11.35l29.84,24.6h-354L1357,40.994z"/>
<path fill="#6B7081" d="M684.001,57.779c0,0,2.65-11.9-15.87-15.86c-18.52-3.96-22.479-2.65-38.35-5.29s-4,1.32-23.8-7.94
	c-19.801-9.26-21.19-10.58-38.381-9.26c-17.189,1.32-19.84,5.29-39.67,1.33s-28.93,2.54-35.71,9.24
	c-8.22,8.15-17.35,4.47-33.22,3.15s-33,8-33,8s-10.67,3.74-12,13S684.001,57.779,684.001,57.779z"/>
<path fill="#606572" d="M1181.7,37.372c0,0,17.63-8.14,28.479-9.5c10.851-1.36,17.641,0,23.061,2.71s22.529-4.61,22.529-4.61
	s16.801-8.95,37.15-7.59s23.88,1.48,35.26-2.72c20.82-7.66,53.82-1.66,63.82,6.34c11.41,9.12,24.34,8.58,48.76,7.23
	c14.91-0.742,29.78,2.047,43.4,8.14l29.84,17.63h-354L1181.7,37.372z"/>
<path fill="#373799" d="M1920,55H0v341h1920V55z"/>
</svg>
